yelp-feelers/src/assets/star-light.svg

<?xml version="1.0"?>
<svg width="576" height="512" xmlns="http://www.w3.org/2000/svg" xmlns:svg="http://www.w3.org/2000/svg" xmlns:se="http://svg-edit.googlecode.com" class="svg-inline--fa fa-star fa-w-18" data-icon="star" data-prefix="fal">
 <g class="layer">
  <title>Layer 1</title>
  <path d="m528.1,171.5l-146.1,-21.3l-65.3,-132.4c-11.7,-23.6 -45.6,-23.9 -57.4,0l-65.3,132.4l-146.1,21.3c-26.2,3.8 -36.7,36.1 -17.7,54.6l105.7,103l-25,145.5c-4.5,26.3 23.2,46 46.4,33.7l130.7,-68.7l130.7,68.7c23.2,12.2 50.9,-7.4 46.4,-33.7l-25,-145.5l105.7,-103c19,-18.5 8.5,-50.8 -17.7,-54.6zm-122.3,146.4l27.8,162l-145.6,-76.4l-145.5,76.5l27.8,-162l-117.8,-114.9l162.7,-23.6l72.8,-147.5l72.8,147.5l162.7,23.6l-117.7,114.8z" fill="#cddae2" id="svg_1"/>
 </g>
</svg>

<svg aria-hidden="true" focusable="false" data-prefix="fal" data-icon="star" class="svg-inline--fa fa-star fa-w-18" role="img" xmlns="http://www.w3.org/2000/svg" viewBox="0 0 576 512"><path fill="currentColor" d="M528.1 171.5L382 150.2 316.7 17.8c-11.7-23.6-45.6-23.9-57.4 0L194 150.2 47.9 171.5c-26.2 3.8-36.7 36.1-17.7 54.6l105.7 103-25 145.5c-4.5 26.3 23.2 46 46.4 33.7L288 439.6l130.7 68.7c23.2 12.2 50.9-7.4 46.4-33.7l-25-145.5 105.7-103c19-18.5 8.5-50.8-17.7-54.6zM405.8 317.9l27.8 162L288 403.5 142.5 480l27.8-162L52.5 203.1l162.7-23.6L288 32l72.8 147.5 162.7 23.6-117.7 114.8z"></path></svg>
